src/pos-icons/disc-alert.svg

<svg height="24" viewBox="0 0 24 24" width="24" xmlns="http://www.w3.org/2000/svg"><path d="m10 14c-1.11 0-2-.9-2-2 0-1.11.89-2 2-2a2 2 0 0 1 2 2 2 2 0 0 1 -2 2m0-10a8 8 0 0 0 -8 8 8 8 0 0 0 8 8 8 8 0 0 0 8-8 8 8 0 0 0 -8-8m10 8h2v-5h-2m0 9h2v-2h-2z"/></svg>

<?xml version="1.0" encoding="UTF-8"?><!DOCTYPE svg PUBLIC "-//W3C//DTD SVG 1.1//EN" "http://www.w3.org/Graphics/SVG/1.1/DTD/svg11.dtd"><svg xmlns="http://www.w3.org/2000/svg" xmlns:xlink="http://www.w3.org/1999/xlink" version="1.1" id="mdi-disc-alert" width="24" height="24" viewBox="0 0 24 24"><path d="M10,14C8.89,14 8,13.1 8,12C8,10.89 8.89,10 10,10A2,2 0 0,1 12,12A2,2 0 0,1 10,14M10,4A8,8 0 0,0 2,12A8,8 0 0,0 10,20A8,8 0 0,0 18,12A8,8 0 0,0 10,4M20,12H22V7H20M20,16H22V14H20V16Z" /></svg>
